app/img/_src/main/howwework/work-4.svg

<svg width="56" height="60" viewBox="0 0 56 60" fill="none" xmlns="http://www.w3.org/2000/svg">
<path d="M54.0883 2.52586C51.5614 1.5825 46.1139 0 38.0208 0C32.8191 0 29.3546 0.87457 25.6865 1.80059C21.5738 2.83875 17.3211 3.9123 9.9495 4.0023C8.88603 4.01531 8.02083 4.8852 8.02083 5.94164V8.01668H5.89142V4.94777C5.89142 3.32461 4.57095 2.00414 2.94778 2.00414C1.32462 2.00414 0.00415039 3.32461 0.00415039 4.94777V59.0605C0.00415039 59.5793 0.424736 60 0.943643 60H4.95204C5.47083 60 5.89153 59.5794 5.89153 59.0605V34.9478H8.02095V37.0062C8.02095 37.5285 8.22661 38.0191 8.59986 38.3879C8.96736 38.751 9.45111 38.95 9.9645 38.95C9.97282 38.95 9.98091 38.9498 9.98923 38.9498C17.5726 38.8556 22.1275 37.7058 26.1463 36.6913C29.6981 35.7947 33.0528 34.9478 38.021 34.9478C45.7825 34.9478 50.9784 36.4452 53.3848 37.3377C53.9793 37.5581 54.6442 37.4741 55.1634 37.1128C55.6847 36.75 55.9959 36.1533 55.9959 35.5161V5.28223C55.9959 4.05961 55.2292 2.95195 54.0883 2.52586ZM4.01255 58.1211H1.88314V7.89141H4.01255V58.1211ZM4.01255 6.01254H1.88314V4.94777C1.88314 4.36066 2.36079 3.88301 2.9479 3.88301C3.53501 3.88301 4.01267 4.36066 4.01267 4.94777V6.01254H4.01255ZM8.02083 33.0689H5.89142V9.89566H8.02083V33.0689ZM54.1169 35.5163C54.1169 35.5279 54.1169 35.5521 54.0903 35.5706C54.067 35.5868 54.0495 35.5805 54.038 35.5763C51.5136 34.6398 46.0758 33.0689 38.0208 33.0689C32.8191 33.0689 29.3545 33.9435 25.6864 34.8695C21.5768 35.907 17.3273 36.9797 9.96579 37.0711C9.94903 37.0711 9.9338 37.0645 9.92021 37.0512C9.90673 37.0379 9.89982 37.0227 9.89982 37.0062V5.94164C9.89982 5.91 9.9338 5.88164 9.97247 5.88129C17.5659 5.78859 22.1246 4.63781 26.1466 3.6225C29.6981 2.7259 33.0527 1.87898 38.021 1.87898C45.8187 1.87898 51.023 3.3873 53.4312 4.28625C53.8478 4.44187 54.117 4.83281 54.117 5.28234V35.5163H54.1169Z" fill="url(#paint0_linear)"/>
<path d="M25.3886 14.1081C25.2036 13.5383 24.6767 13.1524 24.0778 13.1477L21.4075 13.127L20.5627 10.594C20.3732 10.0256 19.8433 9.64404 19.2444 9.64404C18.6454 9.64404 18.1155 10.0258 17.926 10.5942L17.0812 13.1272L14.4111 13.1479C13.8121 13.1526 13.2852 13.5385 13.1001 14.1082C12.9149 14.6778 13.1144 15.2996 13.5963 15.6555L15.7442 17.2418L14.9388 19.7876C14.7581 20.3587 14.9622 20.979 15.4468 21.331C15.9316 21.6833 16.5845 21.6858 17.0719 21.3375L19.2442 19.7847L21.4167 21.3375C21.6588 21.5106 21.9418 21.5971 22.2247 21.5971C22.5113 21.5971 22.7977 21.5083 23.0415 21.3313C23.5261 20.979 23.7303 20.3587 23.5497 19.7878L22.7443 17.2419L24.8923 15.6556C25.3744 15.2996 25.5738 14.6778 25.3886 14.1081ZM21.0881 16.1291C20.7649 16.3677 20.6293 16.7852 20.7503 17.1683L21.3159 18.9559L19.7906 17.8656C19.4638 17.632 19.0247 17.632 18.6979 17.8656L17.1726 18.9559L17.7381 17.1683C17.8593 16.7852 17.7236 16.3678 17.4004 16.1291L15.8921 15.0152L17.767 15.0007C18.1687 14.9976 18.5238 14.7395 18.6509 14.3585L19.2441 12.5799L19.8373 14.3585C19.9645 14.7396 20.3195 14.9978 20.7213 15.0007L22.5961 15.0152L21.0881 16.1291Z" fill="url(#paint1_linear)"/>
<path d="M29.0021 8.0166C28.2078 8.0166 27.5616 8.66277 27.5616 9.45707C27.5616 10.2514 28.2078 10.8975 29.0021 10.8975C29.7964 10.8975 30.4426 10.2514 30.4426 9.45707C30.4426 8.66289 29.7964 8.0166 29.0021 8.0166Z" fill="url(#paint2_linear)"/>
<path d="M29.0021 22.0459C28.2078 22.0459 27.5616 22.6921 27.5616 23.4864C27.5616 24.2807 28.2078 24.9268 29.0021 24.9268C29.7964 24.9268 30.4426 24.2807 30.4426 23.4864C30.4426 22.6921 29.7964 22.0459 29.0021 22.0459Z" fill="url(#paint3_linear)"/>
<path d="M32.5094 18.0376C31.7151 18.0376 31.0689 18.6838 31.0689 19.4781C31.0689 20.2724 31.7151 20.9185 32.5094 20.9185C33.3037 20.9185 33.9498 20.2724 33.9498 19.4781C33.9498 18.6838 33.3037 18.0376 32.5094 18.0376Z" fill="url(#paint4_linear)"/>
<path d="M32.5094 12.0254C31.7151 12.0254 31.0689 12.6716 31.0689 13.4659C31.0689 14.2602 31.7151 14.9063 32.5094 14.9063C33.3037 14.9063 33.9498 14.2602 33.9498 13.4659C33.9498 12.6716 33.3037 12.0254 32.5094 12.0254Z" fill="url(#paint5_linear)"/>
<defs>
<linearGradient id="paint0_linear" x1="28" y1="0" x2="28" y2="60" gradientUnits="userSpaceOnUse">
<stop stop-color="#8888D3"/>
<stop offset="1" stop-color="#5E60A3"/>
</linearGradient>
<linearGradient id="paint1_linear" x1="19.2444" y1="9.64404" x2="19.2444" y2="21.5971" gradientUnits="userSpaceOnUse">
<stop stop-color="#8888D3"/>
<stop offset="1" stop-color="#5E60A3"/>
</linearGradient>
<linearGradient id="paint2_linear" x1="29.0021" y1="8.0166" x2="29.0021" y2="10.8975" gradientUnits="userSpaceOnUse">
<stop stop-color="#8888D3"/>
<stop offset="1" stop-color="#5E60A3"/>
</linearGradient>
<linearGradient id="paint3_linear" x1="29.0021" y1="22.0459" x2="29.0021" y2="24.9268" gradientUnits="userSpaceOnUse">
<stop stop-color="#8888D3"/>
<stop offset="1" stop-color="#5E60A3"/>
</linearGradient>
<linearGradient id="paint4_linear" x1="32.5094" y1="18.0376" x2="32.5094" y2="20.9185" gradientUnits="userSpaceOnUse">
<stop stop-color="#8888D3"/>
<stop offset="1" stop-color="#5E60A3"/>
</linearGradient>
<linearGradient id="paint5_linear" x1="32.5094" y1="12.0254" x2="32.5094" y2="14.9063" gradientUnits="userSpaceOnUse">
<stop stop-color="#8888D3"/>
<stop offset="1" stop-color="#5E60A3"/>
</linearGradient>
</defs>
</svg>

<svg width="56" height="60" fill="none" xmlns="http://www.w3.org/2000/svg"><path d="M54.088 2.526C51.561 1.583 46.114 0 38.021 0c-5.202 0-8.666.875-12.335 1.8-4.111 1.04-8.364 2.113-15.736 2.203a1.953 1.953 0 00-1.93 1.94v2.075H5.892v-3.07a2.947 2.947 0 00-2.943-2.943A2.947 2.947 0 00.004 4.948V59.06c0 .52.42.94.94.94h4.008a.94.94 0 00.94-.94V34.948H8.02v2.058c0 .523.206 1.013.579 1.382.367.363.851.562 1.364.562h.025c7.584-.094 12.139-1.244 16.157-2.259 3.552-.896 6.907-1.743 11.875-1.743 7.761 0 12.957 1.497 15.364 2.39a1.936 1.936 0 002.61-1.822V5.282c0-1.222-.766-2.33-1.907-2.756zM4.013 58.12h-2.13V7.891h2.13v50.23zm0-52.108h-2.13V4.948a1.066 1.066 0 012.13 0v1.065zM8.02 33.069H5.89V9.896h2.13v23.173zm46.096 2.447c0 .012 0 .036-.027.055a.05.05 0 01-.052.005c-2.524-.936-7.962-2.507-16.017-2.507-5.202 0-8.666.874-12.335 1.8-4.11 1.038-8.359 2.11-15.72 2.202a.064.064 0 01-.046-.02.062.062 0 01-.02-.045V5.942c0-.032.034-.06.072-.06 7.594-.093 12.153-1.244 16.175-2.26 3.551-.896 6.906-1.743 11.874-1.743 7.798 0 13.002 1.508 15.41 2.407.417.156.686.547.686.996v30.234z" fill="url(#paint0_linear)"/><path d="M25.389 14.108a1.388 1.388 0 00-1.311-.96l-2.67-.021-.845-2.533a1.39 1.39 0 00-2.637 0l-.845 2.533-2.67.02a1.388 1.388 0 00-.815 2.508l2.148 1.587-.805 2.546a1.388 1.388 0 002.133 1.55l2.172-1.553 2.173 1.552a1.387 1.387 0 001.624-.006c.485-.352.69-.972.509-1.543l-.806-2.546 2.148-1.586a1.39 1.39 0 00.497-1.548zm-4.3 2.021a.94.94 0 00-.339 1.04l.566 1.787-1.525-1.09a.94.94 0 00-1.093 0l-1.525 1.09.565-1.788a.94.94 0 00-.338-1.039l-1.508-1.114 1.875-.014a.94.94 0 00.884-.643l.593-1.778.593 1.778a.94.94 0 00.884.643l1.875.014-1.508 1.114z" fill="url(#paint1_linear)"/><path d="M29.002 8.017c-.794 0-1.44.646-1.44 1.44 0 .794.646 1.44 1.44 1.44.794 0 1.44-.646 1.44-1.44 0-.794-.646-1.44-1.44-1.44z" fill="url(#paint2_linear)"/><path d="M29.002 22.046a1.441 1.441 0 101.44 1.44c0-.794-.646-1.44-1.44-1.44z" fill="url(#paint3_linear)"/><path d="M32.51 18.038c-.795 0-1.441.646-1.441 1.44a1.441 1.441 0 101.44-1.44z" fill="url(#paint4_linear)"/><path d="M32.51 12.025c-.795 0-1.441.647-1.441 1.44a1.441 1.441 0 101.44-1.439z" fill="url(#paint5_linear)"/><defs><linearGradient id="paint0_linear" x1="28" y1="0" x2="28" y2="60" gradientUnits="userSpaceOnUse"><stop stop-color="#8888D3"/><stop offset="1" stop-color="#5E60A3"/></linearGradient><linearGradient id="paint1_linear" x1="19.244" y1="9.644" x2="19.244" y2="21.597" gradientUnits="userSpaceOnUse"><stop stop-color="#8888D3"/><stop offset="1" stop-color="#5E60A3"/></linearGradient><linearGradient id="paint2_linear" x1="29.002" y1="8.017" x2="29.002" y2="10.898" gradientUnits="userSpaceOnUse"><stop stop-color="#8888D3"/><stop offset="1" stop-color="#5E60A3"/></linearGradient><linearGradient id="paint3_linear" x1="29.002" y1="22.046" x2="29.002" y2="24.927" gradientUnits="userSpaceOnUse"><stop stop-color="#8888D3"/><stop offset="1" stop-color="#5E60A3"/></linearGradient><linearGradient id="paint4_linear" x1="32.509" y1="18.038" x2="32.509" y2="20.919" gradientUnits="userSpaceOnUse"><stop stop-color="#8888D3"/><stop offset="1" stop-color="#5E60A3"/></linearGradient><linearGradient id="paint5_linear" x1="32.509" y1="12.025" x2="32.509" y2="14.906" gradientUnits="userSpaceOnUse"><stop stop-color="#8888D3"/><stop offset="1" stop-color="#5E60A3"/></linearGradient></defs></svg>
